!!!SOCIAL_FUNCTION:	chief songs
!!!PDT:	1918

Specific Region: Dakotas, Minnesota, Montana, Nebraska
!!!REG: Dakotas and Montana
!!!LING_GROUP: Siouan
!!!LANG: Tone
!!!OTL@ENG: Song in Honor of John Grass
!!!ONM: No. 191
**kern
*Imale
*clefF4
*k[f#c#g#d#a#]
*M3/4
*MM63
8F#
8f#
8f#
8d#
16f#
8.d#
=1||
*M2/4
16d#
16c#
8c#
8B
8B
=2||
*M3/4
8c#
8c#
4c#
4c#
=3
8B
8d#
16d#
16c#
8c#
16e
8.c#
=4||
*M2/4
16c#
16B
8B
8F#
8F#
=5||
*M3/4
4B
4B
4B
=6
8B
8c#
16c#
16B
8B
16d#
8.B
=7||
*M2/4
16B
16F#
8F#
8F#
8F#
=8
4F#
4F#
=9
4F#
4F#
=10||
*M3/4
8F#
8f#
8f#
8d#
(16f#
16d#)
8d#
=11
(16d#
16c#)
8c#
16B
8.B
8c#
8c#
=12
4c#
4c#
4c#
=13
8B
8d#
16d#
16d#
8c#
16e
8.c#
=14||
*M2/4
(16c#
16B)
8B
8F#
8F#
=15||
*M3/4
4B
4B
4B
=16
8B
8c#
(16c#
16B)
8B
8B
8B
=17
16d#
8.B
(16B
16F#)
8F#
8F#
8F#
=18||
*M2/4
4F#
4F#
=19
2F#
==
*-
!!!CNT: Native American -- Sioux
!!!MRD: 1911/07//-1914///
!!!OCL: Frances Densmore
!!!YOR1: Teton Sioux Music, Bulletin 61,
!!!YOR2: Bureau of American Ethnology, Smithsonian Institution
!!!PPR: Government Printing Office
!!!PPP: Washington, D.C.
!!!PDT: 1918///
!!!ENC: Craig Stuart Sapp
!!!END: 2002/03/25/
!!!EEV: 2002/03/31/
!!!AGN: Chief Song
!!!MPN@@SIO: Toke'ya-wicha'o
!!!MPN@ENG: Shoots First
!!!TXO: Teton Sioux
!!!MLC: Standing Rock Reservation, South Dakota, United States of America
!!!ARL: 45.9/-100.7#
!!!catalog: Catalogue No. 643
!!!PPG: 456
!!!EFL: 196/245
!!!VTS: 703200421
